!!!!SEGMENT: pl-kk--kk-i-7--025_sebastian-z-felsztyna--alleluia-ave-maria.krn
!!!cenid: 16xx:815
!!!COM: Sebastian z Felsztyna
!!!COM-rismid: pe30096436
!!!CDT: ~1480->1543
!!!CNT: Polish
!!!OTL: Alleluia Ave Maria
!!!PDT:
!!!AGN: Sacred
!!!SMS-siglum: PL-Kk
!!!SMS-shelfmark: Kk.I.7
!!!SMS-shelfwork: 025 W
!!!SMS-variant:
!!!SMS-altvar:
!!!NIFC-rismid: 300258102
!!!URL-scan: http://repozytorium.nifc.pl/skany/pl-kk-nut--i-7
!!!ONB-nifc: UWAGA: C (skan 0016, s.27), A (0103, s.26), T(0178, s.21), B(0268, s.27). Następny utwór: Virgini Mariae
**kern	**text	**kern	**text	**kern	**text	**kern	**text
*part4	*part4	*part3	*part3	*part2	*part2	*part1	*part1
*staff4	*staff4	*staff3	*staff3	*staff2	*staff2	*staff1	*staff1
*I"BASSVS.	*	*I"TENOR.	*	*I"ALTVS.	*	*I"CANTVS.	*
*I'B	*	*I'T	*	*I'A	*	*I'S	*
*clefF4	*	*clefC4	*	*clefC3	*	*clefC3	*
*k[]	*	*k[]	*	*k[]	*	*k[]	*
*C:	*	*C:	*	*C:	*	*C:	*
*M2/1	*	*M2/1	*	*M2/1	*	*M2/1	*
*met(c|)	*	*met(c|)	*	*met(c|)	*	*met(c|)	*
=1-	=1-	=1-	=1-	=1-	=1-	=1-	=1-
*all\right	*	*lig	*	*all\right	*	*all\right	*
!LO:TX:a:t=Sebaſtiani Felſztyn ȧ D(omi)nica Reſurrectionis D(omi)ni ad Conduct(us) Paſchae.	!	!LO:TX:a:t=Alleluia Felſztyn ȧ D(omi)nica Reſurrectionis \nad D(omi)nicá  Conduct(us) Paſchae.	!	!LO:TX:a:i:t=Sebaſtiani Felſztyn ȧ D(omi)nica Paschae ad D(omi)nicam Conduct(us) exclusiuè.	!	!LO:TX:a:i:t=Sebaſtiani Felſztyn.	!
!LO:TX:t=P:problem:przed kluczem inicjał A	!	!LO:TX:t=P:problem:przed kluczem inicjał A	!	!LO:TX:t=P:problem:przed kluczem inicjał A	!	!LO:TX:t=P:problem:przed kluczem inicjał A	!
!LO:TX:t=P:problem:podłożenie tekstu niejednoznaczne	!	!LO:TX:t=P:problem:podłożenie tekstu niejednoznaczne	!	!LO:TX:t=P:problem:podłożenie tekstu niejednoznaczne	!	!LO:TX:t=P:problem:podłożenie tekstu niejednoznaczne	!
1G	AL-	1G	AL-	1.d	Al-	1g	AL-
!	!	!	!	!	!	!LO:TX:t=P:problem:kreska pseudotaktowa	!
*2\right	*	*	*	*	*	*	*
!LO:TX:b:t=d:problem:korekta dźwięku	!	!	!	!	!	!	!
2D\	.	1A	.	.	.	1f	.
!LO:TX:t=P:problem:kreska pseudotaktowa	!	!	!	!	!	!	!
2F\	-le-	.	.	4c/	-le-	.	.
!	!	!	!	!LO:TX:t=P:problem:kreska pseudotaktowa	!	!	!
.	.	.	.	4B/	.	.	.
*	*	*Xlig	*	*	*	*	*
=2-	=2-	=2-	=2-	=2-	=2-	=2-	=2-
*lig	*	*lig	*	*	*	*lig	*
1C	.	1c	-le-	2c/	.	1e	-le-
.	.	.	.	2G/	.	.	.
*	*	*	*	*2\right	*	*	*
!	!	!	!	!	!	!LO:TX:t=P:problem:kreska pseudotaktowa	!
1D	.	1A	.	2.d\	.	1f	.
!	!	!	!	!LO:TX:t=P:problem:kreska pseudotaktowa	!	!	!
.	.	.	.	4c/	.	.	.
*Xlig	*	*Xlig	*	*	*	*Xlig	*
=3-	=3-	=3-	=3-	=3-	=3-	=3-	=3-
*	*	*	*	*	*	*2\right	*
2GG/	.	1B	.	2B/	.	2d\	.
1G	.	.	.	2d\	.	1g	.
*	*	*lig	*	*	*	*	*
.	.	1c	.	2e\	.	.	.
!LO:TX:t=P:problem:kreska pseudotaktowa	!	!	!	!LO:TX:t=P:problem:kreska pseudotaktowa	!	!LO:TX:t=P:problem:kreska pseudotaktowa	!
2F\	.	.	.	2f\	.	2a\	.
=4-	=4-	=4-	=4-	=4-	=4-	=4-	=4-
*	*	*	*	*	*	*lig	*
2G\	.	1B	.	2d\	.	1g	.
2E\	.	.	.	2e\	.	.	.
*	*	*Xlig	*	*	*	*	*
!LO:TX:t=P:problem:kreska pseudotaktowa	!	!	!	!	!	!LO:TX:t=P:problem:kreska pseudotaktowa	!
1F	.	1A	.	2c/	.	1f	.
!	!	!	!	!LO:TX:t=P:problem:kreska pseudotaktowa	!	!	!
.	.	.	.	2d\	.	.	.
*	*	*	*	*	*	*Xlig	*
=5-	=5-	=5-	=5-	=5-	=5-	=5-	=5-
*lig	*	*lig	*	*lig	*	*	*
1E	-lu-	1G	-lu-	1B	-lu-	2g\	-lu-
.	.	.	.	.	.	2e\	.
1AA	.	1A	.	1d	.	1f	-ia
*Xlig	*	*Xlig	*	*Xlig	*	*	*
=6-	=6-	=6-	=6-	=6-	=6-	=6-	=6-
!LO:TX:t=P:problem:kreska pseudotaktowa	!	!LO:TX:t=P:problem:kreska pseudotaktowa	!	!LO:TX:t=P:problem:kreska pseudotaktowa	!	!LO:TX:t=P:problem:kreska pseudotaktowa	!
1AA	-ia	1A	-ia	1c	-ia	1e	.
2.A\	Al-	0c	Al-	1e	Al-	1.a	.
4G\	.	.	.	.	.	.	.
=7-	=7-	=7-	=7-	=7-	=7-	=7-	=7-
2F\	.	.	.	4A/	.	.	.
.	.	.	.	4B/	.	.	.
4E\	-le-	.	.	4c/	.	4g\	Al-
!LO:TX:t=P:problem:kreska pseudotaktowa	!	!	!	!	!	!LO:TX:t=P:problem:kreska pseudotaktowa	!
4D\	.	.	.	4d\	.	4f\	.
!	!	!	!	!LO:TX:t=P:problem:kreska pseudotaktowa	!	!	!
1E	-lu-	1B	.	1e	.	2.g\	.
.	.	.	.	.	.	4f\	.
=8-	=8-	=8-	=8-	=8-	=8-	=8-	=8-
!LO:TX:t=P:problem:kreska pseudotaktowa	!	!	!	!	!	!	!
1AA	-ia	1A	.	2r	.	1e	.
!	!	!	!	!LO:TX:t=P:problem:kreska pseudotaktowa	!	!	!
.	.	.	.	2c/	.	.	.
*	*	*lig	*	*lig	*	*	*
1r	.	1d	.	1B	.	2d\	.
!	!	!	!	!	!	!LO:TX:t=P:problem:kreska pseudotaktowa	!
.	.	.	.	.	.	2g\	-le-
=9-	=9-	=9-	=9-	=9-	=9-	=9-	=9-
*	*ij	*	*	*	*	*	*
1F	Al-	1c	.	1A	.	1a	-lu-
*	*	*Xlig	*	*Xlig	*	*	*
!LO:TX:t=P:problem:kreska pseudotaktowa	!	!	!	!	!	!	!
*	*	*lig	*	*lig	*	*	*
!	!	!	!	!	!	!LO:TX:t=P:problem:kreska pseudotaktowa	!
1G	.	1B	.	1d	.	1g	-ia
=10-	=10-	=10-	=10-	=10-	=10-	=10-	=10-
!	!	!	!	!LO:TX:t=P:problem:kreska pseudotaktowa	!	!	!
!	!	!	!	!LO:SIC:v:t=custos b	!	!	!
2A\	.	1A	.	1c	.	2r	.
*	*	*	*	*	*	*	*ij
2F\	-le-	.	.	.	.	2f\	Al-
*	*	*Xlig	*	*Xlig	*	*	*
!	!	!	!	!LO:LB:g=original	!	!LO:TX:t=P:problem:kreska pseudotaktowa	!
2G\	-lu-	1G	.	2B/	.	1e	.
!LO:TX:t=P:problem:kreska pseudotaktowa	!	!	!	!	!	!	!
2C/	.	.	.	2c/	.	.	.
=11-	=11-	=11-	=11-	=11-	=11-	=11-	=11-
*	*	*lig	*	*	*	*	*
!	!	!	!	!LO:TX:t=P:problem:kreska pseudotaktowa	!	!	!
2D/	.	1B	.	1B	.	2d\	.
!LO:SIC:v:t=custos AA	!	!	!	!	!	!LO:TX:t=P:problem:kreska pseudotaktowa	!
2E\	.	.	.	.	.	2g\	.
!LO:LB:g=original	!	!	!	!	!	!	!
4AA/	-ia	1c	.	2A/	.	2f\	.
4BB/	.	.	.	.	.	.	.
4C/	.	.	.	2e\	.	1a\	-le-
!LO:TX:t=P:problem:kreska pseudotaktowa	!	!	!	!	!	!	!
4D/	.	.	.	.	.	.	.
*	*	*Xlig	*	*	*	*	*
=12-	=12-	=12-	=12-	=12-	=12-	=12-	=12-
*lig	*	*lig	*	*	*	*	*
1E	Al-	1B	-le-	2.e\	-le-	.	.
!	!	!	!	!	!	!LO:TX:t=P:problem:kreska pseudotaktowa	!
!	!	!	!	!	!	!LO:SIC:v:t=custos a	!
.	.	.	.	.	.	2g\	.
!	!	!	!	!LO:TX:t=P:problem:kreska pseudotaktowa	!	!	!
.	.	.	.	4d\	.	.	.
!	!	!	!	!	!	!LO:LB:g=original	!
1F	.	1A	.	4c/	.	2a\	-lu-
.	.	.	.	4B/	.	.	.
.	.	.	.	1A/	.	2f\	.
!	!	!	!	!	!	!LO:TX:t=P:problem:kreska pseudotaktowa	!
*Xlig	*	*Xlig	*	*	*	*	*
=13-	=13-	=13-	=13-	=13-	=13-	=13-	=13-
!LO:TX:t=P:problem:kreska pseudotaktowa	!	!	!	!	!	!	!
1E	.	1B	-lu-	.	.	2.g\	-ia
!	!	!	!	!LO:TX:t=P:problem:kreska pseudotaktowa	!	!	!
.	.	.	.	2G/	.	.	.
.	.	.	.	.	.	4f\	.
!	!	!	!	!	!	!LO:TX:t=P:problem:kreska pseudotaktowa	!
1AA	.	1c	.	2.A/	.	1e	Al-
.	.	.	.	4B/	.	.	.
=14-	=14-	=14-	=14-	=14-	=14-	=14-	=14-
2AA/	-le-	[0Al;	-ia.	2c/	.	2e\	-le-
1D	-lu-	.	.	1f	.	1d	.
!LO:TX:t=P:problem:kreska pseudotaktowa	!	!	!	!	!	!LO:TX:t=P:problem:kreska pseudotaktowa	!
2C#X/	.	.	.	2e\	.	2e\	.
=15-	=15-	=15-	=15-	=15-	=15-	=15-	=15-
1D	.	0.A]	.	1d	-lu-	1f	-lu-
0AAl;	-ia	.	.	0c#Xl	-ia	0el;<	-ia
*	*Xij	*	*	*	*	*	*Xij
!	!	!LO:LB:g=original	!	!	!	!	!
=16||	=16||	=16||	=16||	=16||	=16||	=16||	=16||
*M2/1	*	*M2/1	*	*M2/1	*	*M2/1	*
*met(c|)	*	*met(c|)	*	*met(c|)	*	*met(c|)	*
*lig	*	*lig	*	*	*	*	*
!LO:TX:t=P:problem:przed metrum inicjał A	!	!	!	!	!	!	!
!	!	!	!	!LO:TX:t=P:problem:przed metrum inicjał A	!	!LO:TX:t=P:problem:przed metrum inicjał A	!
!	!	!LO:TX:t=P:problem:przed metrum inicjał A	!	!	!	!	!
1E	A-	1G	A-	2.B/	A-	1g	A-
!	!	!	!	!LO:TX:t=P:problem:kreska pseudotaktowa	!	!	!
.	.	.	.	4c/	.	.	.
!	!	!	!	!	!	!LO:TX:t=P:problem:kreska pseudotaktowa	!
1D	.	1A	.	2d\	.	1f	-ue
.	.	.	.	4A/	-ue	.	.
!	!	!	!	!LO:TX:t=P:problem:kreska pseudotaktowa	!	!	!
.	.	.	.	4B/	.	.	.
*Xlig	*	*Xlig	*	*	*	*	*
=17-	=17-	=17-	=17-	=17-	=17-	=17-	=17-
2C/	-ue	1A	-ue	2.c/	.	2e\	Ma-
!LO:TX:t=P:problem:kreska pseudotaktowa:między nutą a kropką	!	!	!	!	!	!	!
2.AA/	Ma-	.	.	.	.	1a	.
.	.	.	.	4d\	.	.	.
*	*	*lig	*	*	*	*	*
!	!	!	!	!LO:TX:t=P:problem:kreska pseudotaktowa	!	!	!
.	.	1c	Ma-	1e	.	.	.
4BB/	.	.	.	.	.	.	.
!LO:TX:t=P:problem:kreska pseudotaktowa	!	!	!	!	!	!LO:TX:t=P:problem:kreska pseudotaktowa	!
2C/	.	.	.	.	.	2g\	.
=18-	=18-	=18-	=18-	=18-	=18-	=18-	=18-
2D/	.	1A	.	2d\	Ma-	2f\	-ri-
2C/	.	.	.	1A	.	2e\	.
*	*	*Xlig	*	*	*	*	*
!LO:TX:t=P:problem:kreska pseudotaktowa	!	!	!	!	!	!LO:TX:t=P:problem:kreska pseudotaktowa	!
1BB	-ri-	1B	.	.	.	1d	-a
!	!	!	!	!LO:TX:t=P:problem:kreska pseudotaktowa	!	!	!
.	.	.	.	2G/	-ri-	.	.
=19-	=19-	=19-	=19-	=19-	=19-	=19-	=19-
*	*	*lig	*	*	*	*	*
!	!	!	!	!LO:TX:t=P:problem:kreska pseudotaktowa	!	!	!
!	!	!	!	!LO:SIC:v:t=custos d	!	!	!
2AA,/	-a	1c	.	1A	-a	2r	.
*	*	*	*	*	*	*	*ij
!	!	!	!	!	!	!LO:TX:t=P:problem:kreska pseudotaktowa	!
2A\	.	.	.	.	.	2e\	A-
!	!	!	!	!LO:LB:g=original	!	!	!
1G	.	1B	.	2r	.	2d\	-ue
*	*	*	*	*	*ij	*	*
!	!	!	!	!LO:TX:t=P:problem:kreska pseudotaktowa	!	!	!
.	.	.	.	2d\	A-	1g\	Ma-
*	*	*Xlig	*	*	*	*	*
=20-	=20-	=20-	=20-	=20-	=20-	=20-	=20-
!LO:TX:t=P:problem:kreska pseudotaktowa	!	!	!	!	!	!	!
1D	.	1A	.	2.d\	-ue	.	.
!	!	!	!	!	!	!LO:TX:t=P:problem:kreska pseudotaktowa	!
.	.	.	.	.	.	2f\	.
.	.	.	.	4c/	.	.	.
*lig	*	*lig	*	*	*	*	*
1E	.	1G	-ri-	2B/	Ma-	2g\	.
!	!	!	!	!LO:TX:t=P:problem:kreska pseudotaktowa	!	!	!
.	.	.	.	2c/	-ri-	4f\	.
.	.	.	.	.	.	4e\	.
=21-	=21-	=21-	=21-	=21-	=21-	=21-	=21-
1D	.	1A	.	1d	-a	1f	-ri-
*Xlig	*	*Xlig	*	*	*Xij	*	*
!LO:TX:t=P:problem:kreska pseudotaktowa	!	!	!	!	!	!	!
!LO:SIC:v:t=custos F	!	!	!	!	!	!LO:TX:t=P:problem:kreska pseudotaktowa	!
1D	.	1A	-a	2d\	gra-	1f	-a
*	*	*	*	*	*	*	*Xij
!	!	!	!	!LO:TX:t=P:problem:kreska pseudotaktowa:między nutą a kropką	!	!	!
.	.	.	.	2.f\	.	.	.
!LO:LB:g=original	!	!	!	!	!	!	!
=22-	=22-	=22-	=22-	=22-	=22-	=22-	=22-
*	*	*lig	*	*	*	*	*
1F	gra-	1A	gra-	.	.	1r	.
.	.	.	.	4e\	.	.	.
.	.	.	.	4d\	.	.	.
!	!	!	!	!LO:TX:t=P:problem:kreska pseudotaktowa	!	!	!
.	.	.	.	4c/	.	.	.
*	*	*	*	*	*	*lig	*
2.G\	.	1B	.	4d\	.	1d	gra-
.	.	.	.	4c/	.	.	.
.	.	.	.	4B/	.	.	.
!LO:TX:t=P:problem:kreska pseudotaktowa	!	!	!	!LO:TX:t=P:problem:kreska pseudotaktowa	!	!	!
4F\	.	.	.	4A/	.	.	.
*	*	*Xlig	*	*	*	*	*
=23-	=23-	=23-	=23-	=23-	=23-	=23-	=23-
!	!	!	!	!	!	!LO:TX:t=P:problem:kreska pseudotaktowa	!
!	!	!	!	!	!	!LO:SIC:v:t=custos c	!
4E\	.	1G	-ti-	1B	.	1e	.
4D/	.	.	.	.	.	.	.
2E\	-ti-	.	.	.	.	.	.
*	*	*	*	*	*	*Xlig	*
!LO:TX:t=P:problem:kreska pseudotaktowa	!	!	!	!	!	!LO:LB:g=original	!
1AA	-a	1A	-a	2A/	-ti-	1c	-ti-
.	.	.	.	2e\	-a	.	.
=24-	=24-	=24-	=24-	=24-	=24-	=24-	=24-
*	*	*lig	*	*	*	*	*
!	!	!	!	!LO:TX:t=P:problem:kreska pseudotaktowa	!	!	!
2rC	.	1d	ple-	1f	ple-	2d\	-a
!	!	!	!	!	!	!LO:TX:t=P:problem:kreska pseudotaktowa	!
2D/	ple-	.	.	.	.	2.a\	ple-
*	*	*	*	*lig	*	*	*
1E	.	1c	.	1e	.	.	.
.	.	.	.	.	.	4g\	.
.	.	.	.	.	.	1g\	.
*	*	*Xlig	*	*	*	*	*
=25-	=25-	=25-	=25-	=25-	=25-	=25-	=25-
!LO:TX:t=P:problem:kreska pseudotaktowa	!	!	!	!	!	!	!
1D	.	1d	.	1A	.	.	.
!	!	!	!	!	!	!LO:TX:t=P:problem:kreska pseudotaktowa	!
.	.	.	.	.	.	2f\	.
*	*	*lig	*	*Xlig	*	*	*
1GG	.	1B	-na	1d	.	2.g\	.
.	.	.	.	.	.	4f\	.
=26-	=26-	=26-	=26-	=26-	=26-	=26-	=26-
!LO:TX:t=P:problem:kreska pseudotaktowa	!	!	!	!LO:TX:t=P:problem:kreska pseudotaktowa	!	!LO:TX:t=P:problem:kreska pseudotaktowa	!
1AA	-na	1A	.	1c	-na	1e	.
*	*	*Xlig	*	*	*	*	*
*	*	*lig	*	*	*	*	*
2r	.	1d	Do-	2B/	Do-	2d,\	-na
!	!	!	!	!LO:TX:t=P:problem:kreska pseudotaktowa	!	!LO:TX:t=P:problem:kreska pseudotaktowa	!
2D/	Do-	.	.	2A/	.	2f\	Do-
=27-	=27-	=27-	=27-	=27-	=27-	=27-	=27-
2E\	.	1c	.	2G/	.	2g\	-mi-
!LO:TX:t=P:problem:kreska pseudotaktowa	!	!	!	!	!	!	!
2F\	.	.	.	4F/	.	1a	-nus
!	!	!	!	!LO:TX:t=P:problem:kreska pseudotaktowa	!	!	!
.	.	.	.	4G/	.	.	.
*	*	*Xlig	*	*	*	*	*
1D	.	1d	.	1A	.	.	.
.	.	.	.	.	.	4g\	.
!	!	!	!	!	!	!LO:TX:t=P:problem:kreska pseudotaktowa	!
.	.	.	.	.	.	4f\	.
=28-	=28-	=28-	=28-	=28-	=28-	=28-	=28-
1E	.	1B	-mi-	2.e\	.	1g	.
!	!	!	!	!LO:TX:t=P:problem:kreska pseudotaktowa	!	!	!
.	.	.	.	4d\	-mi-	.	.
!	!	!LO:SIC:v:t=custos c	!	!	!	!	!
1F	-mi-	1A	-nus	1c	-n(us)	1a	.
!	!	!LO:LB:g=original	!	!	!	!	!
=29-	=29-	=29-	=29-	=29-	=29-	=29-	=29-
!LO:TX:t=P:problem:kreska pseudotaktowa	!	!	!	!	!	!	!
*	*	*lig	*	*	*	*lig	*
1F	-n(us)	1c	te-	2.f\	te-	1a	te-
!	!	!	!	!LO:TX:t=P:problem:kreska pseudotaktowa	!	!	!
.	.	.	.	4e\	.	.	.
!	!	!	!	!LO:SIC:v:t=custos e	!	!LO:TX:t=P:problem:kreska pseudotaktowa	!
2F\	te-	1B	.	2d\	.	1g	.
!	!	!	!	!LO:LB:g=original	!	!	!
2E\	.	.	.	4e\	.	.	.
!	!	!	!	!LO:TX:t=P:problem:kreska pseudotaktowa	!	!	!
.	.	.	.	4d\	.	.	.
*	*	*Xlig	*	*	*	*Xlig	*
=30-	=30-	=30-	=30-	=30-	=30-	=30-	=30-
!LO:TX:t=P:problem:kreska pseudotaktowa	!	!	!	!	!	!	!
1F	.	1A	.	4c/	.	1f	.
.	.	.	.	4B/	.	.	.
!	!	!	!	!LO:TX:t=P:problem:kreska pseudotaktowa	!	!	!
.	.	.	.	2A/	.	.	.
2.E\	.	1B	.	4G/	.	2.g\	.
.	.	.	.	4F/	.	.	.
.	.	.	.	2.G/	.	.	.
!	!	!	!	!	!	!LO:TX:t=P:problem:kreska pseudotaktowa	!
4D/	.	.	.	.	.	4f\	.
=31-	=31-	=31-	=31-	=31-	=31-	=31-	=31-
*	*	*lig	*	*	*	*	*
4C/	.	1c	.	.	.	4e\	.
4BB/	.	.	.	4F/	.	4d\	.
!LO:TX:t=P:problem:kreska pseudotaktowa	!	!	!	!LO:TX:t=P:problem:kreska pseudotaktowa	!	!	!
2C/	.	.	.	2E/	.	1e	.
1D	.	1A	.	1F	.	.	.
!	!	!	!	!	!	!LO:TX:t=P:problem:kreska pseudotaktowa	!
.	.	.	.	.	.	2d\	.
*	*	*Xlig	*	*	*	*	*
=32-	=32-	=32-	=32-	=32-	=32-	=32-	=32-
!LO:TX:t=P:problem:kreska pseudotaktowa	!	!	!	!	!	!	!
!LO:SIC:v:t=custos E	!	!	!	!LO:TX:t=P:problem:kreska pseudotaktowa	!	!LO:TX:t=P:problem:kreska pseudotaktowa	!
1AA	.	1A	-cum	1E	-cum	1e	-cum
!LO:LB:g=original	!	!	!	!	!	!	!
*	*	*lig	*	*	*	*	*
!LO:TX:t=P:problem:kreska pseudotaktowa	!	!	!	!	!	!	!
0E	-cum	1B	be-	0e	be-	0g	be-
=33-	=33-	=33-	=33-	=33-	=33-	=33-	=33-
.	.	1c	.	.	.	.	.
*	*	*Xlig	*	*	*	*	*
1D	be-	1d	.	4f\	-ne-	1f	-ne-
.	.	.	.	4e\	.	.	.
.	.	.	.	4d\	.	.	.
!	!	!	!	!LO:TX:t=P:problem:kreska pseudotaktowa	!	!	!
.	.	.	.	4c/	.	.	.
=34-	=34-	=34-	=34-	=34-	=34-	=34-	=34-
2D/	-ne-	1A	-ne-	2d\	.	2f\	-di-
4C/	-di-	.	.	2e\	.	4e\	.
!LO:TX:t=P:problem:kreska pseudotaktowa	!	!	!	!	!	!LO:TX:t=P:problem:kreska pseudotaktowa	!
4BB/	.	.	.	.	.	4d\	.
*	*	*lig	*	*	*	*	*
!	!	!	!	!LO:TX:t=P:problem:kreska pseudotaktowa	!	!	!
2C/	.	1A	-di-	1c	.	2e\	.
!LO:TX:t=P:problem:kreska pseudotaktowa	!	!	!	!	!	!	!
2AA/	.	.	.	.	.	2c/	.
=35-	=35-	=35-	=35-	=35-	=35-	=35-	=35-
1BB	.	1G	.	2B/	.	1d	.
.	.	.	.	2G/	.	.	.
*	*	*Xlig	*	*	*	*	*
2AA/	-cta	1E	-cta	2A/	-di-	2c/	.
!	!	!	!	!	!	!LO:TX:t=P:problem:kreska pseudotaktowa	!
!	!	!	!	!LO:TX:t=P:problem:kreska pseudotaktowa:między nutą a kropką	!	!LO:SIC:v:t=custos g	!
2.C/	tu	.	.	2.e\	.	2g\	.
!	!	!	!	!	!	!LO:LB:g=original	!
=36-	=36-	=36-	=36-	=36-	=36-	=36-	=36-
*	*	*lig	*	*	*	*	*
.	.	1G	.	.	.	4g\	.
4D/	.	.	.	4d\	.	4f\	.
!LO:TX:t=P:problem:kreska pseudotaktowa	!	!	!	!	!	!LO:TX:t=P:problem:kreska pseudotaktowa	!
2E\	.	.	.	2c/	-cta	2e\	.
!	!	!	!	!LO:TX:t=P:problem:kreska pseudotaktowa	!	!	!
0D	.	1A	.	1d	tu	2.f\	.
.	.	.	.	.	.	4e\	.
*	*	*Xlig	*	*	*	*	*
=37-	=37-	=37-	=37-	=37-	=37-	=37-	=37-
*	*	*lig	*	*	*	*	*
!	!	!	!	!LO:TX:t=P:problem:kreska pseudotaktowa	!	!LO:TX:t=P:problem:kreska pseudotaktowa	!
.	.	1B	.	1r	.	1d	.
2.C/	.	1c	.	0G	in	2.e\	-cta
!LO:TX:t=P:problem:kreska pseudotaktowa	!	!	!	!	!	!	!
4D/	.	.	.	.	.	4f\	.
*	*	*Xlig	*	*	*	*	*
=38-	=38-	=38-	=38-	=38-	=38-	=38-	=38-
*	*	*lig	*	*	*	*lig	*
1E	.	1B	tu	.	.	1g	tu
!	!	!	!	!LO:TX:t=P:problem:kreska pseudotaktowa	!	!LO:TX:t=P:problem:kreska pseudotaktowa	!
1AA	.	1A	.	1c	mu-	1e	.
*	*	*Xlig	*	*	*	*Xlig	*
=39-	=39-	=39-	=39-	=39-	=39-	=39-	=39-
!LO:TX:t=P:problem:kreska pseudotaktowa	!	!	!	!	!	!	!
1BB	in	1G	in	1d	-li-	2r	.
.	.	.	.	.	.	1g	in
!	!	!	!	!LO:TX:t=P:problem:kreska pseudotaktowa	!	!	!
1AA	.	1A	mu-	1c	-e-	.	.
!	!	!	!	!	!	!LO:TX:t=P:problem:kreska pseudotaktowa	!
.	.	.	.	.	.	2f\	mu-
=40-	=40-	=40-	=40-	=40-	=40-	=40-	=40-
*	*	*lig	*	*lig	*	*	*
2BB/	mu-	1G	-li-	1d	.	1g	-li-
!LO:TX:t=P:problem:kreska pseudotaktowa	!	!	!	!	!	!	!
2GG/	-li-	.	.	.	.	.	.
!	!	!	!	!LO:TX:t=P:problem:kreska pseudotaktowa	!	!	!
!	!	!	!	!LO:SIC:v:t=custos e	!	!	!
2.D/	-e-	1A	.	1f	.	2f\	-e-
!	!	!	!	!	!	!LO:TX:t=P:problem:kreska pseudotaktowa	!
.	.	.	.	.	.	2d\	-ri-
4D/	-ri-	.	.	.	.	.	.
*	*	*Xlig	*	*Xlig	*	*	*
!	!	!	!	!LO:LB:g=original	!	!	!
=41-	=41-	=41-	=41-	=41-	=41-	=41-	=41-
!LO:TX:t=P:problem:kreska pseudotaktowa	!	!	!	!	!	!	!
*	*	*lig	*	*	*	*	*
1C	-bus	1c	-e-	1e	.	2e\	-bus
.	.	.	.	.	.	1g	be-
2r	.	1B	.	2d\	.	.	.
*	*ij	*	*	*	*	*	*
!	!	!	!	!	!	!LO:TX:t=P:problem:kreska pseudotaktowa	!
2E\	in	.	.	4e\	.	2g\	-ne-
!	!	!	!	!LO:TX:t=P:problem:kreska pseudotaktowa	!	!	!
.	.	.	.	4d\	.	.	.
*	*	*Xlig	*	*	*	*	*
=42-	=42-	=42-	=42-	=42-	=42-	=42-	=42-
2.F\	mu-	1A	.	4c/	.	2.a\	-di-
.	.	.	.	4B/	.	.	.
.	.	.	.	4A/	.	.	.
!LO:TX:t=P:problem:kreska pseudotaktowa	!	!	!	!LO:TX:t=P:problem:kreska pseudotaktowa	!	!	!
4E\	.	.	.	4G/	.	4g\	.
*	*	*lig	*	*	*	*lig	*
1D	.	1d	.	0A	.	1f	.
=43-	=43-	=43-	=43-	=43-	=43-	=43-	=43-
!LO:TX:t=P:problem:kreska pseudotaktowa	!	!	!	!	!	!	!
!LO:SIC:v:t=custos BB	!	!LO:SIC:v:t=custos b=B	!	!	!	!LO:TX:t=P:problem:kreska pseudotaktowa	!
1AA	-li-	1c	.	.	.	1e	.
*	*	*Xlig	*	*	*	*Xlig	*
!	!	!LO:LB:g=original	!	!	!	!	!
*	*	*lig	*	*	*	*	*
!LO:LB:g=original	!	!	!	!LO:TX:t=P:problem:kreska pseudotaktowa	!	!	!
2.BB/	-e-	1B	.	0.d	.	2d\	.
.	.	.	.	.	.	1g\	-cta
4C/	.	.	.	.	.	.	.
=44-	=44-	=44-	=44-	=44-	=44-	=44-	=44-
!LO:TX:t=P:problem:kreska pseudotaktowa	!	!	!	!	!	!	!
1D	-ri-	1A	.	.	.	.	.
.	.	.	.	.	.	2f\	.
*	*	*Xlig	*	*	*	*	*
!	!	!	!	!	!	!LO:TX:t=P:problem:kreska pseudotaktowa	!
0GG	-bus	1G	.	.	.	0g	tu
=45-	=45-	=45-	=45-	=45-	=45-	=45-	=45-
*	*	*lig	*	*	*	*	*
!	!	!	!	!	!	!LO:TX:t=P:problem:kreska pseudotaktowa	!
.	.	1B	.	1e	-ri-	.	.
!LO:TX:t=P:problem:kreska pseudotaktowa	!	!	!	!LO:TX:t=P:problem:kreska pseudotaktowa	!	!	!
1AA	in	1c	.	1A	-bus	1e	in
*	*	*Xlig	*	*	*	*	*
=46-	=46-	=46-	=46-	=46-	=46-	=46-	=46-
*	*	*lig	*	*	*	*	*
2.BB/	mu-	1B	.	2r	.	2.d\	mu-
!	!	!	!	!LO:TX:t=P:problem:kreska pseudotaktowa	!	!	!
.	.	.	.	2d\	in	.	.
!	!	!	!	!	!	!LO:TX:t=P:problem:kreska pseudotaktowa	!
4C/	.	.	.	.	.	4e\	.
2D/	.	1A	.	2d\	mu-	2f\	.
!LO:TX:t=P:problem:kreska pseudotaktowa	!	!	!	!	!	!	!
2C/	-li-	.	.	1e\	-li-	4e\	.
.	.	.	.	.	.	4f\	.
*	*	*Xlig	*	*	*	*	*
=47-	=47-	=47-	=47-	=47-	=47-	=47-	=47-
*	*	*lig	*	*	*	*	*
!	!	!	!	!	!	!LO:TX:t=P:problem:kreska pseudotaktowa	!
1BB	-e-	1G	-ri-	.	.	1g	-li-
!	!	!	!	!LO:TX:t=P:problem:kreska pseudotaktowa	!	!	!
.	.	.	.	2d\	-e-	.	.
1AA	-ri-	1A	.	1e	-ri-	2.c/	-e-
.	.	.	.	.	.	4d\	-ri-
*	*	*Xlig	*	*	*	*	*
=48-	=48-	=48-	=48-	=48-	=48-	=48-	=48-
!LO:TX:b:B:t=PROSA	!	!LO:TX:b:B:t=PROSA.	!	!LO:TX:b:B:t=PROSA	!	!LO:TX:b:i:t=Proſa.	!
0AA	-bus	0Al	-bus.	0c#Xl	-bus	0el;	-bus.
*	*Xij	*	*	*	*	*	*
==	==	==	==	==	==	==	==
*-	*-	*-	*-	*-	*-	*-	*-
!!!system-decoration: [s1,s2,s3,s4]
!!!RDF**kern: < = below
!!!RDF**kern: l = terminal long
!!!ENC: Marta Lawrence
!!!END: 2021-03-09
!!!ENC: Andrzej Borzym
!!!END: 2021-02-23
